openframe-frontend-core/src/components/icons-v2/brand-logos/google-play.svg

<svg width="24" height="24" viewBox="0 0 24 24" fill="none" xmlns="http://www.w3.org/2000/svg">
<path d="M3.20859 1.96801C3.64835 1.58611 4.30045 1.60686 4.71591 1.99731L4.79648 2.07934L11.9215 10.2839L15.1178 6.60424L15.1969 6.52074C15.6122 6.13023 16.2644 6.1098 16.7042 6.49145C17.1733 6.89884 17.2229 7.61022 16.8155 8.07934L13.4112 11.9993L16.8141 15.9177L16.8844 16.0085C17.2133 16.4746 17.1425 17.1235 16.7027 17.5056C16.263 17.8875 15.6109 17.8668 15.1954 17.4763L15.1148 17.3943L11.92 13.7146L4.79795 21.9177L4.71884 22.0012C4.30339 22.3919 3.65137 22.411 3.21152 22.029C2.74255 21.6217 2.69161 20.9117 3.09873 20.4426L10.4303 11.9993L3.09726 3.5559L3.02695 3.46508C2.6981 2.99903 2.76885 2.35012 3.20859 1.96801Z" fill="#888888"/>
<path d="M1.87744 5.00465C1.87753 1.82174 5.32976 -0.161958 8.07959 1.44068L20.0752 8.43385C22.805 10.0254 22.805 13.9702 20.0752 15.5618L8.07959 22.5549C5.32968 24.1579 1.87744 22.174 1.87744 18.991V5.00465ZM4.12744 18.991C4.12744 20.4379 5.69728 21.3398 6.94727 20.6111L18.9414 13.6179C20.1822 12.8945 20.1822 11.1011 18.9414 10.3777L6.94727 3.38453C5.69732 2.65579 4.12753 3.55781 4.12744 5.00465V18.991Z" fill="#888888"/>
</svg>

<svg xmlns="http://www.w3.org/2000/svg" width="24" height="24" fill="none" viewBox="0 0 24 24">
  <path fill="#888" d="M3.209 1.968a1.125 1.125 0 0 1 1.507.03l.08.081 7.125 8.205 3.197-3.68.079-.083a1.126 1.126 0 0 1 1.619 1.558L13.41 12l3.403 3.919.07.09a1.125 1.125 0 0 1-1.689 1.468l-.08-.082-3.195-3.68-7.122 8.204-.08.083a1.125 1.125 0 0 1-1.62-1.558L10.429 12 3.096 3.557l-.07-.09a1.125 1.125 0 0 1 .182-1.498Z"/>
  <path fill="#888" d="M1.877 5.005c0-3.183 3.453-5.167 6.203-3.564l11.995 6.993c2.73 1.591 2.73 5.536 0 7.128L8.08 22.555c-2.75 1.603-6.203-.381-6.203-3.564V5.005Zm2.25 13.986c0 1.447 1.57 2.349 2.82 1.62l11.994-6.993c1.241-.723 1.241-2.517 0-3.24L6.947 3.385c-1.25-.73-2.82.173-2.82 1.62V18.99Z"/>
</svg>
